svgs/thin/draw-polygon.svg

<svg xmlns="http://www.w3.org/2000/svg" viewBox="0 0 448 512"><!--! Font Awesome Pro 6.1.1 by @fontawesome - https://fontawesome.com License - https://fontawesome.com/license (Commercial License) Copyright 2022 Fonticons, Inc. --><path d="M381.3 387.8C387.1 385.3 393.4 384 400 384C426.5 384 448 405.5 448 432C448 458.5 426.5 480 400 480C376.2 480 356.5 462.7 352.7 440H95.34C91.53 462.7 71.78 480 48 480C21.49 480 0 458.5 0 432C0 408.2 17.3 388.5 40 384.7V127.3C17.3 123.5 0 103.8 0 80C0 53.49 21.49 32 48 32C71.78 32 91.53 49.3 95.34 72H352.7C356.5 49.3 376.2 32 400 32C426.5 32 448 53.49 448 80C448 106.5 426.5 128 400 128C393.4 128 387.1 126.7 381.3 124.2L320.2 220.4C329.9 229.1 336 241.9 336 256C336 270.1 329.9 282.9 320.2 291.6L381.3 387.8zM48 48C30.33 48 16 62.33 16 80C16 97.67 30.33 112 48 112C65.67 112 80 97.67 80 80C80 62.33 65.67 48 48 48zM56 384.7C76.1 388 91.96 403.9 95.34 424H352.7C354.5 413.1 359.1 403.5 367.8 396.4L306.7 300.2C300.9 302.7 294.6 304 288 304C261.5 304 240 282.5 240 256C240 229.5 261.5 208 288 208C294.6 208 300.9 209.3 306.7 211.8L367.8 115.6C359.1 108.5 354.5 98.89 352.7 88H95.34C91.96 108.1 76.1 123.1 56 127.3V384.7zM400 48C382.3 48 368 62.33 368 80C368 97.67 382.3 112 400 112C417.7 112 432 97.67 432 80C432 62.33 417.7 48 400 48zM48 464C65.67 464 80 449.7 80 432C80 414.3 65.67 400 48 400C30.33 400 16 414.3 16 432C16 449.7 30.33 464 48 464zM400 400C382.3 400 368 414.3 368 432C368 449.7 382.3 464 400 464C417.7 464 432 449.7 432 432C432 414.3 417.7 400 400 400zM288 288C305.7 288 320 273.7 320 256C320 238.3 305.7 224 288 224C270.3 224 256 238.3 256 256C256 273.7 270.3 288 288 288z"/></svg>

<svg xmlns="http://www.w3.org/2000/svg" viewBox="0 0 448 512"><!--! Font Awesome Pro 6.4.2 by @fontawesome - https://fontawesome.com License - https://fontawesome.com/license (Commercial License) Copyright 2023 Fonticons, Inc. --><path d="M80 80A32 32 0 1 0 16 80a32 32 0 1 0 64 0zM56 127.3V384.7C76.1 388 92 403.9 95.3 424H352.7c1.8-10.9 7.3-20.5 15.2-27.6l-61.2-96.1c-5.7 2.4-12 3.8-18.7 3.8c-26.5 0-48-21.5-48-48s21.5-48 48-48c6.6 0 12.9 1.3 18.7 3.8l61.2-96.1c-7.9-7.1-13.3-16.7-15.2-27.6H95.3C92 108.1 76.1 124 56 127.3zM381.3 387.8c5.7-2.4 12-3.8 18.7-3.8c26.5 0 48 21.5 48 48s-21.5 48-48 48c-23.8 0-43.5-17.3-47.3-40H95.3c-3.8 22.7-23.6 40-47.3 40c-26.5 0-48-21.5-48-48c0-23.8 17.3-43.5 40-47.3V127.3C17.3 123.5 0 103.8 0 80C0 53.5 21.5 32 48 32c23.8 0 43.5 17.3 47.3 40H352.7c3.8-22.7 23.6-40 47.3-40c26.5 0 48 21.5 48 48s-21.5 48-48 48c-6.6 0-12.9-1.3-18.7-3.8l-61.2 96.1c9.7 8.8 15.8 21.5 15.8 35.6s-6.1 26.9-15.8 35.6l61.2 96.1zM432 80a32 32 0 1 0 -64 0 32 32 0 1 0 64 0zM48 464a32 32 0 1 0 0-64 32 32 0 1 0 0 64zm384-32a32 32 0 1 0 -64 0 32 32 0 1 0 64 0zM288 288a32 32 0 1 0 0-64 32 32 0 1 0 0 64z"/></svg>
